X:1
T:Alfreton, LM
T:Supplement to New Version, 1708
T:Alfreton, LM
T:Public Domain
C:Supplement to New Version, 1708
Z:Public Domain
%%score ( 1 2 ) ( 3 4 )
L:1/8
M:none
K:G
V:1 treble 
V:2 treble 
V:3 bass 
V:4 bass 
V:1
 [DG]4 [GB]2 [Gc]2 | [DA]2 [FB]2 [EG]2 [^CA]2 | [DF]2 [FA]2 [GB]2 [E^c]2 | [Dd]2 [DA]2 [DB]2 (AG) | %4
 [DF]2 [DA]2 [Dd]2 [EB]2 | [Ec]2 GF [EA]2 [EG]2 | [DF]2 [DA]2 [GB]2 (FE) | [Dd]2 [EG]2 D2 z F x | %8
 [DG]8 |] %9
V:2
 x8 | x8 | x8 | x6 ^C2 | x8 | x2 B2 x4 | x6 c2 | x4 G3 D2 | x8 |] %9
V:3
 [G,,B,]4 [G,D]2 [E,C]2 | [F,D]2 [D,D]2 [E,B,]2 [A,,A,]2 | [D,A,]2 [D,D]2 [G,D]2 [G,A,]2 | %3
 [F,A,]2 [D,F,]2 [G,,E,]2 [A,,A,]2 | [D,A,]2 [D,F,]2 [B,,F,]2 [E,^G,]2 | %5
 [A,,A,]2 [B,,D]2 [C,C]2 [A,,C]2 | [D,A,]2 [F,,D]2 [G,,D]2 [A,,C]2 | %7
 [B,,G,]2 (CB,) [D,A,]2 [D,A,]2 x | [G,,B,]8 |] %9
V:4
 x8 | x8 | x8 | x8 | x8 | x8 | x8 | x2 C,2 x5 | x8 |] %9

